public/icons/browse.svg

<?xml version="1.0" encoding="UTF-8" standalone="no"?>
<svg
   width="24"
   height="24"
   viewBox="0 0 24 24"
   id="svg2"
   version="1.1"
   inkscape:version="1.2.2 (732a01da63, 2022-12-09)"
   sodipodi:docname="browse.svg"
   xmlns:inkscape="http://www.inkscape.org/namespaces/inkscape"
   xmlns:sodipodi="http://sodipodi.sourceforge.net/DTD/sodipodi-0.dtd"
   xmlns="http://www.w3.org/2000/svg"
   xmlns:svg="http://www.w3.org/2000/svg"
   xmlns:rdf="http://www.w3.org/1999/02/22-rdf-syntax-ns#"
   xmlns:cc="http://creativecommons.org/ns#"
   xmlns:dc="http://purl.org/dc/elements/1.1/">
  <metadata
     id="metadata12">
    <rdf:RDF>
      <cc:Work
         rdf:about="">
        <dc:format>image/svg+xml</dc:format>
        <dc:type
           rdf:resource="http://purl.org/dc/dcmitype/StillImage" />
      </cc:Work>
    </rdf:RDF>
  </metadata>
  <defs
     id="defs10" />
  <sodipodi:namedview
     pagecolor="#ffffff"
     bordercolor="#666666"
     borderopacity="1"
     objecttolerance="10"
     gridtolerance="10"
     guidetolerance="10"
     inkscape:pageopacity="0"
     inkscape:pageshadow="2"
     inkscape:window-width="1920"
     inkscape:window-height="1009"
     id="namedview8"
     showgrid="false"
     inkscape:zoom="6.9532165"
     inkscape:cx="32.574852"
     inkscape:cy="6.9032799"
     inkscape:window-x="-8"
     inkscape:window-y="-8"
     inkscape:window-maximized="1"
     inkscape:current-layer="svg2"
     inkscape:showpageshadow="2"
     inkscape:pagecheckerboard="0"
     inkscape:deskcolor="#d1d1d1" />
  <path
     fill="none"
     d="M0 0h24v24H0V0z"
     id="path4" />
  <path
     id="path4138"
     style="fill:#ffffff;fill-opacity:1"
     d="M 3.640625 1.8144531 L 3.640625 10.802734 L 10.832031 10.802734 L 10.832031 1.8144531 L 3.640625 1.8144531 z M 13.150391 1.8144531 L 13.150391 10.802734 L 20.341797 10.802734 L 20.341797 1.8144531 L 13.150391 1.8144531 z M 3.640625 13.402344 L 3.640625 22.390625 L 10.832031 22.390625 L 10.832031 13.402344 L 3.640625 13.402344 z M 13.150391 13.402344 L 13.150391 22.390625 L 20.341797 22.390625 L 20.341797 13.402344 L 13.150391 13.402344 z " />
</svg>

<?xml version="1.0" encoding="UTF-8"?>
<svg version="1.1" viewBox="0 0 24 24" xmlns="http://www.w3.org/2000/svg">
<path d="m3.6406 1.8145v8.9883h7.1914v-8.9883h-7.1914zm9.5098 0v8.9883h7.1914v-8.9883h-7.1914zm-9.5098 11.588v8.9883h7.1914v-8.9883h-7.1914zm9.5098 0v8.9883h7.1914v-8.9883h-7.1914z" fill="#fff" fill-opacity="0.87"/>
</svg>
